kettlebell.svg

<svg fill="currentColor" viewBox="0 0 24 24"><path d="m16.2 10.7.6-2.4c.1-.3.5-1.7-.3-2.9C15.9 4.5 14.7 4 13 4h-2c-1.7 0-2.9.5-3.5 1.4-.8 1.2-.4 2.5-.3 2.9l.6 2.4C6.7 11.8 6 13.3 6 15c0 2.1 1.1 3.9 2.7 5h6.6c1.6-1.1 2.7-2.9 2.7-5 0-1.7-.7-3.2-1.8-4.3M9.6 9.5l-.5-1.7v-.1s-.2-.7.1-1.1Q9.5 6 11 6h2c.9 0 1.6.2 1.9.5.3.4.1 1.1.1 1.1l-.5 1.9c-.8-.3-1.6-.5-2.5-.5s-1.7.2-2.4.5"/></svg>

<svg  viewBox="0 0 24 24" fill="currentColor"><path  d="M16.2 10.7L16.8 8.3C16.9 8 17.3 6.6 16.5 5.4C15.9 4.5 14.7 4 13 4H11C9.3 4 8.1 4.5 7.5 5.4C6.7 6.6 7.1 7.9 7.2 8.3L7.8 10.7C6.7 11.8 6 13.3 6 15C6 17.1 7.1 18.9 8.7 20H15.3C16.9 18.9 18 17.1 18 15C18 13.3 17.3 11.8 16.2 10.7M9.6 9.5L9.1 7.8V7.7C9.1 7.7 8.9 7 9.2 6.6C9.4 6.2 10 6 11 6H13C13.9 6 14.6 6.2 14.9 6.5C15.2 6.9 15 7.6 15 7.6L14.5 9.5C13.7 9.2 12.9 9 12 9C11.1 9 10.3 9.2 9.6 9.5Z"/></svg>
